character-justice/static/images/footer/twitter.svg

<svg height="26" preserveAspectRatio="xMidYMid meet" viewBox="0 0 26 26" width="26" xmlns="http://www.w3.org/2000/svg" xmlns:xlink="http://www.w3.org/1999/xlink"><defs><path id="a" d="m23.99 0c1.1 0 2 .9 2 2v21.98c0 1.11-.9 2-2 2-2.2 0-19.79 0-21.99 0-1.1 0-2-.89-2-2 0-1.46 0-8.79 0-21.98.6-1.33 1.27-2 2-2zm-1.44 7.35s-1.13.47-2.23.58c.11-.07 1.52-1.04 1.71-2.18 0 0-.79.42-1.9.79-.19.06-.38.12-.58.18-.71-.77-1.73-1.24-2.86-1.24-2.17 0-3.93 1.75-3.93 3.92 0 .3.04.6.1.89-.3-.01-4.91-.27-8.05-4.07 0 0-1.88 2.56 1.12 5.19 0 0-.92-.04-1.7-.5 0 0-.29 3.1 3.1 3.89 0 0-.67.25-1.73.07 0 0 .6 2.51 3.61 2.74 0 0-2.38 2.16-5.76 1.65 1.73 1.1 3.78 1.73 5.98 1.73 6.17 0 11.18-5.01 11.18-11.18 0-.16 0-.31-.01-.46.23-.18 1.61-1.29 1.95-2z"/><path id="b" d="m23.99 0c1.1 0 2 .9 2 2v21.98c0 1.11-.9 2-2 2-2.2 0-19.79 0-21.99 0-1.1 0-2-.89-2-2 0-1.46 0-8.79 0-21.98.6-1.33 1.27-2 2-2zm-1.44 7.35s-1.13.47-2.23.58c.11-.07 1.52-1.04 1.71-2.18 0 0-.79.42-1.9.79-.19.06-.38.12-.58.18-.71-.77-1.73-1.24-2.86-1.24-2.17 0-3.93 1.75-3.93 3.92 0 .3.04.6.1.89-.3-.01-4.91-.27-8.05-4.07 0 0-1.88 2.56 1.12 5.19 0 0-.92-.04-1.7-.5 0 0-.29 3.1 3.1 3.89 0 0-.67.25-1.73.07 0 0 .6 2.51 3.61 2.74 0 0-2.38 2.16-5.76 1.65 1.73 1.1 3.78 1.73 5.98 1.73 6.17 0 11.18-5.01 11.18-11.18 0-.16 0-.31-.01-.46.23-.18 1.61-1.29 1.95-2z"/></defs><use fill="#4a4a4a" xlink:href="#a"/><g fill="none"><use xlink:href="#a"/><use xlink:href="#b"/><use xlink:href="#b"/></g></svg>

<?xml version="1.0" encoding="UTF-8" standalone="no"?>
<!DOCTYPE svg PUBLIC "-//W3C//DTD SVG 1.1//EN" "http://www.w3.org/Graphics/SVG/1.1/DTD/svg11.dtd">
<svg version="1.1" xmlns="http://www.w3.org/2000/svg" xmlns:xlink="http://www.w3.org/1999/xlink" preserveAspectRatio="xMidYMid meet" viewBox="0 0 26 26" width="26" height="26"><defs><path d="M23.99 0C25.09 0 25.99 0.9 25.99 2C25.99 4.2 25.99 21.79 25.99 23.98C25.99 25.09 25.09 25.98 23.99 25.98C21.79 25.98 4.2 25.98 2 25.98C0.9 25.98 0 25.09 0 23.98C0 22.52 0 15.19 0 2C0.6 0.67 1.27 0 2 0C4.2 0 21.79 0 23.99 0ZM22.55 7.35C22.55 7.35 21.42 7.82 20.32 7.93C20.32 7.93 20.32 7.93 20.32 7.93C20.32 7.93 20.32 7.93 20.32 7.93C20.43 7.86 21.84 6.89 22.03 5.75C22.03 5.75 21.24 6.17 20.13 6.54C19.94 6.6 19.75 6.66 19.55 6.72C18.84 5.95 17.82 5.48 16.69 5.48C14.52 5.48 12.76 7.23 12.76 9.4C12.76 9.7 12.8 10 12.86 10.29C12.56 10.28 7.95 10.02 4.81 6.22C4.81 6.22 2.93 8.78 5.93 11.41C5.93 11.41 5.01 11.37 4.23 10.91C4.23 10.91 3.94 14.01 7.33 14.8C7.33 14.8 6.66 15.05 5.6 14.87C5.6 14.87 6.2 17.38 9.21 17.61C9.21 17.61 6.83 19.77 3.45 19.26C5.18 20.36 7.23 20.99 9.43 20.99C15.6 20.99 20.61 15.98 20.61 9.81C20.61 9.65 20.61 9.5 20.6 9.35C20.83 9.17 22.21 8.06 22.55 7.35Z" id="a1d7Mwh7A"></path><path d="M23.99 0C25.09 0 25.99 0.9 25.99 2C25.99 4.2 25.99 21.79 25.99 23.98C25.99 25.09 25.09 25.98 23.99 25.98C21.79 25.98 4.2 25.98 2 25.98C0.9 25.98 0 25.09 0 23.98C0 22.52 0 15.19 0 2C0.6 0.67 1.27 0 2 0C4.2 0 21.79 0 23.99 0ZM22.55 7.35C22.55 7.35 21.42 7.82 20.32 7.93C20.32 7.93 20.32 7.93 20.32 7.93C20.32 7.93 20.32 7.93 20.32 7.93C20.43 7.86 21.84 6.89 22.03 5.75C22.03 5.75 21.24 6.17 20.13 6.54C19.94 6.6 19.75 6.66 19.55 6.72C18.84 5.95 17.82 5.48 16.69 5.48C14.52 5.48 12.76 7.23 12.76 9.4C12.76 9.7 12.8 10 12.86 10.29C12.56 10.28 7.95 10.02 4.81 6.22C4.81 6.22 2.93 8.78 5.93 11.41C5.93 11.41 5.01 11.37 4.23 10.91C4.23 10.91 3.94 14.01 7.33 14.8C7.33 14.8 6.66 15.05 5.6 14.87C5.6 14.87 6.2 17.38 9.21 17.61C9.21 17.61 6.83 19.77 3.45 19.26C5.18 20.36 7.23 20.99 9.43 20.99C15.6 20.99 20.61 15.98 20.61 9.81C20.61 9.65 20.61 9.5 20.6 9.35C20.83 9.17 22.21 8.06 22.55 7.35Z" id="b2F64QXrJm"></path></defs><g><g><g><use xlink:href="#a1d7Mwh7A" opacity="1" fill="#4a4a4a" fill-opacity="1"></use><g><use xlink:href="#a1d7Mwh7A" opacity="1" fill-opacity="0" stroke="#000000" stroke-width="1" stroke-opacity="0"></use></g></g><g><use xlink:href="#b2F64QXrJm" opacity="1" fill="#000000" fill-opacity="0"></use><g><use xlink:href="#b2F64QXrJm" opacity="1" fill-opacity="0" stroke="#000000" stroke-width="1" stroke-opacity="0"></use></g></g></g></g></svg>
